; generated by PrusaSlicer 2.3.1+x64 on 2023-03-12 at 14:09:04 UTC

; 

; external perimeters extrusion width = 0.45mm
; perimeters extrusion width = 0.45mm
; infill extrusion width = 0.45mm
; solid infill extrusion width = 0.45mm
; top infill extrusion width = 0.40mm
; first layer extrusion width = 0.42mm

M73 P0 R227
M73 Q0 S229
M201 X1000 Y1000 Z200 E5000 ; sets maximum accelerations, mm/sec^2
M203 X200 Y200 Z12 E120 ; sets maximum feedrates, mm/sec
M204 P1250 R1250 T1250 ; sets acceleration (P, T) and retract acceleration (R), mm/sec^2
M205 X8.00 Y8.00 Z0.40 E4.50 ; sets the jerk limits, mm/sec
M205 S0 T0 ; sets the minimum extruding and travel feed rate, mm/sec
M107
;TYPE:Custom
M862.3 P "MK3" ; printer model check
M862.1 P0.4 ; nozzle diameter check
M115 U3.9.3 ; tell printer latest fw version
G90 ; use absolute coordinates
M83 ; extruder relative mode
M104 S120 ; set extruder temp
M140 S85 ; set bed temp
M190 S85 ; wait for bed temp
M104 S240 ; set extruder temp
M109 S240 ; wait for extruder temp
G28 W ; home all without mesh bed level
G80 ; mesh bed leveling
G1 Y-3.0 F1000.0 ; go outside print area
G92 E0.0
G1 X60.0 E9.0 F1000.0 ; intro line
G1 X100.0 E12.5 F1000.0 ; intro line
G92 E0.0
M221 S95

; Don't change E values below. Excessive value can damage the printer.

M907 E538 ; set extruder motor current
G21 ; set units to millimeters
G90 ; use absolute coordinates
M83 ; use relative distances for extrusion
M900 K0.08 ; Filament gcode LA 1.5
M900 K45 ; Filament gcode LA 1.0
;LAYER_CHANGE
;Z:0.2
;HEIGHT:0.2
;BEFORE_LAYER_CHANGE
G92 E0.0
;0.2


M73 Q0 S228
G1 E-1.00000 F2100.000
G1 Z0.200 F10800.000
;AFTER_LAYER_CHANGE
;0.2
G1 Z0.400
G1 X56.008 Y34.257
G1 Z0.200
G1 E1.00000 F2100.000
M204 S1000
;TYPE:Skirt
;WIDTH:0.42
G1 F1200.000
G1 X57.460 Y33.785 E0.04788
G1 X58.959 Y33.623 E0.04729
G1 X191.000 Y33.623 E4.14004
G1 X192.508 Y33.779 E0.04755
G1 X193.881 Y34.211 E0.04513
G1 X194.801 Y34.680 E0.03235
G1 X196.022 Y35.599 E0.04793
G1 X196.980 Y36.680 E0.04527
G1 X197.738 Y37.996 E0.04763
G1 X198.212 Y39.448 E0.04788
G1 X198.375 Y40.910 E0.04612
G1 X198.377 Y169.034 E4.01725
G1 X198.219 Y170.516 E0.04671
G1 X197.787 Y171.885 E0.04502
G1 X197.320 Y172.801 E0.03223
G1 X196.410 Y174.013 E0.04754
G1 X195.317 Y174.982 E0.04577
G1 X193.982 Y175.747 E0.04827
G1 X192.537 Y176.215 E0.04761
G1 X191.006 Y176.377 E0.04826
G1 X58.966 Y176.377 E4.14004
G1 X57.476 Y176.218 E0.04697
G1 X56.093 Y175.779 E0.04550
G1 X55.205 Y175.324 E0.03128
G1 X53.996 Y174.419 E0.04735
G1 X53.022 Y173.323 E0.04598
G1 X52.256 Y171.989 E0.04824
G1 X51.784 Y170.533 E0.04800
G1 X51.623 Y169.006 E0.04812
G1 X51.623 Y40.966 E4.01462
G1 X51.782 Y39.476 E0.04697
G1 X52.220 Y38.097 E0.04538
G1 X52.676 Y37.205 E0.03140
G1 X53.581 Y35.996 E0.04735
G1 X54.677 Y35.022 E0.04598
G1 X55.956 Y34.287 E0.04624
; printing object cover_v3.1.stl id:1 copy 0
;WIPE_START
G1 F8640.000
G1 X57.460 Y33.785 E-0.36617
G1 X58.959 Y33.623 E-0.34823
G1 X59.980 Y33.623 E-0.23560
;WIPE_END
G1 E-0.05000 F2100.000
G1 Z0.400 F10800.000
G1 X57.301 Y37.147
G1 Z0.200
G1 E1.00000 F2100.000
;TYPE:Perimeter
G1 F1200.000
G1 X57.698 Y36.994 E0.01336
G1 X58.124 Y36.880 E0.01382
G1 X58.560 Y36.811 E0.01382
G1 X59.021 Y36.787 E0.01447
G1 X117.000 Y36.788 E1.81791
G1 X117.440 Y36.811 E0.01381
G1 X117.876 Y36.880 E0.01382
G1 X118.302 Y36.994 E0.01382
G1 X118.713 Y37.152 E0.01382
G1 X119.106 Y37.352 E0.01382
G1 X119.476 Y37.593 E0.01382
G1 X119.818 Y37.870 E0.01382
G1 X120.130 Y38.182 E0.01382
G1 X120.407 Y38.524 E0.01382
G1 X120.648 Y38.894 E0.01382
G1 X120.848 Y39.287 E0.01382
G1 X121.006 Y39.698 E0.01382
G1 X121.120 Y40.124 E0.01382
G1 X121.189 Y40.560 E0.01382
G1 X121.213 Y41.021 E0.01447
G1 X121.213 Y168.979 E4.01206
G1 X121.189 Y169.440 E0.01447
G1 X121.120 Y169.876 E0.01382
G1 X121.006 Y170.302 E0.01382
G1 X120.848 Y170.713 E0.01382
G1 X120.648 Y171.106 E0.01382
G1 X120.407 Y171.476 E0.01382
G1 X120.130 Y171.818 E0.01382
G1 X119.818 Y172.130 E0.01382
G1 X119.476 Y172.407 E0.01382
G1 X119.106 Y172.648 E0.01382
G1 X118.713 Y172.848 E0.01382
G1 X118.302 Y173.006 E0.01382
G1 X117.876 Y173.120 E0.01382
G1 X117.440 Y173.189 E0.01382
G1 X116.979 Y173.213 E0.01447
G1 X59.021 Y173.213 E1.81726
G1 X58.560 Y173.189 E0.01447
G1 X58.124 Y173.120 E0.01382
G1 X57.698 Y173.006 E0.01382
G1 X57.287 Y172.848 E0.01382
G1 X56.894 Y172.648 E0.01382
G1 X56.524 Y172.407 E0.01382
G1 X56.182 Y172.130 E0.01382
G1 X55.870 Y171.818 E0.01382
G1 X55.593 Y171.476 E0.01382
G1 X55.352 Y171.106 E0.01382
G1 X55.152 Y170.713 E0.01382
G1 X54.994 Y170.302 E0.01382
G1 X54.880 Y169.876 E0.01382
G1 X54.811 Y169.440 E0.01382
G1 X54.787 Y168.979 E0.01447
G1 X54.787 Y41.021 E4.01206
M73 P0 R226
G1 X54.811 Y40.560 E0.01447
G1 X54.880 Y40.124 E0.01382
G1 X54.994 Y39.698 E0.01382
G1 X55.152 Y39.287 E0.01382
G1 X55.352 Y38.894 E0.01382
G1 X55.593 Y38.524 E0.01382
G1 X55.870 Y38.182 E0.01382
G1 X56.182 Y37.870 E0.01382
G1 X56.524 Y37.593 E0.01382
G1 X56.893 Y37.353 E0.01379
G1 X57.247 Y37.174 E0.01243
G1 X57.077 Y36.838 F10800.000
;TYPE:External perimeter
G1 F1200.000
G1 X57.582 Y36.635 E0.01705
G1 X58.046 Y36.511 E0.01506
G1 X58.520 Y36.436 E0.01506
G1 X59.011 Y36.410 E0.01540
G1 X117.010 Y36.411 E1.81853
G1 X117.480 Y36.436 E0.01474
G1 X117.954 Y36.511 E0.01506
G1 X118.418 Y36.635 E0.01506
G1 X118.867 Y36.807 E0.01506
G1 X119.295 Y37.025 E0.01506
G1 X119.698 Y37.287 E0.01506
G1 X120.071 Y37.589 E0.01506
G1 X120.411 Y37.929 E0.01506
G1 X120.713 Y38.302 E0.01506
G1 X120.975 Y38.705 E0.01506
G1 X121.193 Y39.133 E0.01506
G1 X121.365 Y39.582 E0.01506
G1 X121.489 Y40.046 E0.01506
G1 X121.564 Y40.520 E0.01506
G1 X121.590 Y41.011 E0.01540
G1 X121.590 Y168.989 E4.01268
M73 Q0 S227
G1 X121.564 Y169.480 E0.01540
G1 X121.489 Y169.954 E0.01506
G1 X121.365 Y170.418 E0.01506
G1 X121.193 Y170.867 E0.01506
G1 X120.975 Y171.295 E0.01506
G1 X120.713 Y171.698 E0.01506
G1 X120.411 Y172.071 E0.01506
G1 X120.071 Y172.411 E0.01506
G1 X119.698 Y172.713 E0.01506
G1 X119.295 Y172.975 E0.01506
G1 X118.867 Y173.193 E0.01506
G1 X118.418 Y173.365 E0.01506
G1 X117.954 Y173.489 E0.01506
G1 X117.480 Y173.564 E0.01506
G1 X116.989 Y173.590 E0.01540
G1 X59.011 Y173.590 E1.81788
G1 X58.520 Y173.564 E0.01540
G1 X58.046 Y173.489 E0.01506
G1 X57.582 Y173.365 E0.01506
G1 X57.133 Y173.193 E0.01506
G1 X56.705 Y172.975 E0.01506
G1 X56.302 Y172.713 E0.01506
G1 X55.929 Y172.411 E0.01506
G1 X55.589 Y172.071 E0.01506
G1 X55.287 Y171.698 E0.01506
G1 X55.025 Y171.295 E0.01506
G1 X54.807 Y170.867 E0.01506
G1 X54.635 Y170.418 E0.01506
G1 X54.511 Y169.954 E0.01506
G1 X54.436 Y169.480 E0.01506
G1 X54.410 Y168.989 E0.01540
G1 X54.410 Y41.011 E4.01268
G1 X54.436 Y40.520 E0.01540
G1 X54.511 Y40.046 E0.01506
G1 X54.635 Y39.582 E0.01506
G1 X54.807 Y39.133 E0.01506
G1 X55.025 Y38.705 E0.01506
G1 X55.287 Y38.302 E0.01506
G1 X55.589 Y37.929 E0.01506
G1 X55.929 Y37.589 E0.01506
G1 X56.302 Y37.287 E0.01506
G1 X56.705 Y37.026 E0.01505
G1 X57.023 Y36.865 E0.01119
G1 X57.403 Y37.069 F10800.000
;WIPE_START
G1 F8640.000
G1 X57.582 Y36.635 E-0.13938
G1 X58.046 Y36.511 E-0.11092
G1 X58.520 Y36.436 E-0.11092
G1 X59.011 Y36.410 E-0.11340
G1 X61.069 Y36.410 E-0.47537
;WIPE_END
G1 E-0.05000 F2100.000
G1 Z0.400 F10800.000
G1 X118.945 Y37.398
G1 Z0.200
G1 E1.00000 F2100.000
;TYPE:Solid infill
;WIDTH:0.42061
G1 F1200.000
G1 X119.922 Y38.374 E0.04336
G1 X120.178 Y38.691 E0.01281
G1 X120.402 Y39.036 E0.01291
G1 X120.589 Y39.402 E0.01291
G1 X120.697 Y39.683 E0.00946
G1 X118.317 Y37.303 E0.10571
G1 X117.817 Y37.157 E0.01636
G1 X117.603 Y37.123 E0.00680
G1 X120.877 Y40.397 E0.14540
G1 X120.907 Y40.589 E0.00611
G1 X120.928 Y40.982 E0.01236
G1 X117.018 Y37.072 E0.17366
G1 X116.482 Y37.071 E0.01682
G1 X120.930 Y41.519 E0.19754
G1 X120.930 Y42.053 E0.01677
G1 X115.948 Y37.071 E0.22127
G1 X115.414 Y37.071 E0.01677
G1 X120.930 Y42.587 E0.24499
G1 X120.930 Y43.121 E0.01677
G1 X114.880 Y37.071 E0.26871
G1 X114.346 Y37.071 E0.01677
G1 X120.930 Y43.655 E0.29244
G1 X120.930 Y44.189 E0.01677
G1 X113.812 Y37.071 E0.31616
G1 X113.277 Y37.071 E0.01677
G1 X120.930 Y44.724 E0.33988
G1 X120.930 Y45.258 E0.01677
G1 X112.743 Y37.071 E0.36361
G1 X112.209 Y37.071 E0.01677
G1 X120.930 Y45.792 E0.38733
G1 X120.930 Y46.326 E0.01677
G1 X111.675 Y37.071 E0.41105
G1 X111.141 Y37.071 E0.01677
G1 X120.930 Y46.860 E0.43478
G1 X120.930 Y47.394 E0.01677
G1 X110.607 Y37.071 E0.45850
G1 X110.073 Y37.071 E0.01677
G1 X120.930 Y47.928 E0.48222
G1 X120.930 Y48.463 E0.01677
G1 X109.538 Y37.071 E0.50595
G1 X109.004 Y37.071 E0.01677
G1 X120.930 Y48.997 E0.52967
G1 X120.930 Y49.531 E0.01677
G1 X108.470 Y37.071 E0.55339
G1 X107.936 Y37.071 E0.01677
G1 X120.930 Y50.065 E0.57712
G1 X120.930 Y50.599 E0.01677
G1 X107.402 Y37.071 E0.60084
G1 X106.868 Y37.071 E0.01677
G1 X120.930 Y51.133 E0.62456
G1 X120.930 Y51.667 E0.01677
G1 X106.334 Y37.071 E0.64829
G1 X105.799 Y37.071 E0.01677
G1 X120.930 Y52.202 E0.67201
G1 X120.930 Y52.736 E0.01677
G1 X105.265 Y37.071 E0.69573
G1 X104.731 Y37.071 E0.01677
G1 X120.930 Y53.270 E0.71946
G1 X120.930 Y53.804 E0.01677
G1 X104.197 Y37.071 E0.74318
G1 X103.663 Y37.071 E0.01677
G1 X120.930 Y54.338 E0.76690
G1 X120.930 Y54.872 E0.01677
G1 X103.129 Y37.071 E0.79062
G1 X102.595 Y37.071 E0.01677
G1 X120.930 Y55.406 E0.81435
G1 X120.930 Y55.940 E0.01677
G1 X102.060 Y37.071 E0.83807
G1 X101.526 Y37.071 E0.01677
G1 X120.930 Y56.475 E0.86179
G1 X120.930 Y57.009 E0.01677
G1 X100.992 Y37.071 E0.88552
G1 X100.458 Y37.071 E0.01677
G1 X120.930 Y57.543 E0.90924
G1 X120.930 Y58.077 E0.01677
G1 X99.924 Y37.071 E0.93296
G1 X99.390 Y37.071 E0.01677
G1 X120.930 Y58.611 E0.95669
G1 X120.930 Y59.145 E0.01677
G1 X98.855 Y37.071 E0.98041
G1 X98.321 Y37.071 E0.01677
G1 X120.930 Y59.679 E1.00413
M73 P0 R225
G1 X120.930 Y60.214 E0.01677
G1 X97.787 Y37.071 E1.02786
G1 X97.253 Y37.071 E0.01677
G1 X120.930 Y60.748 E1.05158
G1 X120.930 Y61.282 E0.01677
G1 X96.719 Y37.071 E1.07530
G1 X96.185 Y37.071 E0.01677
G1 X120.930 Y61.816 E1.09903
G1 X120.930 Y62.350 E0.01677
G1 X95.651 Y37.071 E1.12275
G1 X95.116 Y37.071 E0.01677
G1 X120.930 Y62.884 E1.14647
G1 X120.930 Y63.418 E0.01677
G1 X94.582 Y37.071 E1.17020
M73 Q0 S226
G1 X94.048 Y37.071 E0.01677
G1 X120.930 Y63.952 E1.19392
G1 X120.930 Y64.487 E0.01677
G1 X93.514 Y37.071 E1.21764
G1 X92.980 Y37.071 E0.01677
G1 X120.930 Y65.021 E1.24137
G1 X120.930 Y65.555 E0.01677
G1 X92.446 Y37.071 E1.26509
G1 X91.912 Y37.070 E0.01677
G1 X120.930 Y66.089 E1.28881
G1 X120.930 Y66.623 E0.01677
G1 X91.377 Y37.070 E1.31254
M73 P1 R225
M73 Q1 S226
G1 X90.843 Y37.070 E0.01677
G1 X120.930 Y67.157 E1.33626
G1 X120.930 Y67.691 E0.01677
G1 X90.309 Y37.070 E1.35998
G1 X89.775 Y37.070 E0.01677
G1 X120.930 Y68.226 E1.38370
G1 X120.930 Y68.760 E0.01677
G1 X89.241 Y37.070 E1.40743
G1 X88.707 Y37.070 E0.01677
G1 X120.930 Y69.294 E1.43115
G1 X120.930 Y69.828 E0.01677
G1 X88.173 Y37.070 E1.45487
G1 X87.638 Y37.070 E0.01677
G1 X120.930 Y70.362 E1.47860
G1 X120.930 Y70.896 E0.01677
G1 X87.104 Y37.070 E1.50232
G1 X86.570 Y37.070 E0.01677
G1 X120.930 Y71.430 E1.52604
G1 X120.930 Y71.964 E0.01677
G1 X86.036 Y37.070 E1.54977
G1 X85.502 Y37.070 E0.01677
G1 X120.930 Y72.499 E1.57349
G1 X120.930 Y73.033 E0.01677
G1 X84.968 Y37.070 E1.59721
G1 X84.434 Y37.070 E0.01677
G1 X120.930 Y73.567 E1.62094
G1 X120.930 Y74.101 E0.01677
G1 X83.899 Y37.070 E1.64466
G1 X83.365 Y37.070 E0.01677
G1 X120.930 Y74.635 E1.66838
M73 P1 R224
G1 X120.930 Y75.169 E0.01677
G1 X82.831 Y37.070 E1.69211
G1 X82.297 Y37.070 E0.01677
G1 X120.930 Y75.703 E1.71583
G1 X120.930 Y76.238 E0.01677
G1 X81.763 Y37.070 E1.73955
G1 X81.229 Y37.070 E0.01677
G1 X120.930 Y76.772 E1.76328
M73 Q1 S225
G1 X120.930 Y77.306 E0.01677
G1 X80.695 Y37.070 E1.78700
G1 X80.160 Y37.070 E0.01677
G1 X120.930 Y77.840 E1.81072
G1 X120.930 Y78.374 E0.01677
G1 X79.626 Y37.070 E1.83445
G1 X79.092 Y37.070 E0.01677
G1 X120.930 Y78.908 E1.85817
G1 X120.930 Y79.442 E0.01677
G1 X78.558 Y37.070 E1.88189
G1 X78.024 Y37.070 E0.01677
G1 X120.930 Y79.976 E1.90562
G1 X120.930 Y80.511 E0.01677
G1 X77.490 Y37.070 E1.92934
G1 X76.956 Y37.070 E0.01677
G1 X120.930 Y81.045 E1.95306
G1 X120.930 Y81.579 E0.01677
G1 X76.421 Y37.070 E1.97678
G1 X75.887 Y37.070 E0.01677
G1 X120.930 Y82.113 E2.00051
G1 X120.930 Y82.647 E0.01677
G1 X75.353 Y37.070 E2.02423
G1 X74.819 Y37.070 E0.01677
G1 X120.930 Y83.181 E2.04795
G1 X120.930 Y83.715 E0.01677
G1 X74.285 Y37.070 E2.07168
G1 X73.751 Y37.070 E0.01677
G1 X120.930 Y84.250 E2.09540
G1 X120.930 Y84.784 E0.01677
G1 X73.217 Y37.070 E2.11912
M73 P1 R223
G1 X72.682 Y37.070 E0.01677
G1 X120.930 Y85.318 E2.14285
G1 X120.930 Y85.852 E0.01677
G1 X72.148 Y37.070 E2.16657
G1 X71.614 Y37.070 E0.01677
G1 X120.930 Y86.386 E2.19029
G1 X120.930 Y86.920 E0.01677
G1 X71.080 Y37.070 E2.21402
M73 Q1 S224
G1 X70.546 Y37.070 E0.01677
G1 X120.930 Y87.454 E2.23774
G1 X120.930 Y87.989 E0.01677
G1 X70.012 Y37.070 E2.26146
G1 X69.478 Y37.070 E0.01677
G1 X120.930 Y88.523 E2.28519
G1 X120.930 Y89.057 E0.01677
G1 X68.943 Y37.070 E2.30891
G1 X68.409 Y37.070 E0.01677
G1 X120.930 Y89.591 E2.33263
G1 X120.930 Y90.125 E0.01677
G1 X67.875 Y37.070 E2.35636
G1 X67.341 Y37.070 E0.01677
G1 X120.930 Y90.659 E2.38008
G1 X120.930 Y91.193 E0.01677
G1 X66.807 Y37.070 E2.40380
M73 P2 R223
M73 Q2 S224
G1 X66.273 Y37.070 E0.01677
G1 X120.930 Y91.727 E2.42753
G1 X120.930 Y92.262 E0.01677
G1 X65.739 Y37.070 E2.45125
G1 X65.204 Y37.070 E0.01677
G1 X120.930 Y92.796 E2.47497
G1 X120.930 Y93.330 E0.01677
G1 X64.670 Y37.070 E2.49869
M73 P2 R222
G1 X64.136 Y37.070 E0.01677
G1 X120.930 Y93.864 E2.52242
G1 X120.930 Y94.398 E0.01677
G1 X63.602 Y37.070 E2.54614
G1 X63.068 Y37.070 E0.01677
G1 X120.930 Y94.932 E2.56986
G1 X120.930 Y95.466 E0.01677
G1 X62.534 Y37.070 E2.59359
M73 Q2 S223
G1 X62.000 Y37.070 E0.01677
G1 X120.930 Y96.001 E2.61731
G1 X120.930 Y96.535 E0.01677
G1 X61.465 Y37.070 E2.64103
G1 X60.931 Y37.070 E0.01677
G1 X120.930 Y97.069 E2.66476
G1 X120.930 Y97.603 E0.01677
G1 X60.397 Y37.070 E2.68848
G1 X59.863 Y37.070 E0.01677
G1 X120.930 Y98.137 E2.71220
G1 X120.930 Y98.671 E0.01677
G1 X59.329 Y37.070 E2.73593
G1 X58.806 Y37.081 E0.01641
G1 X120.930 Y99.205 E2.75913
G1 X120.930 Y99.739 E0.01677
G1 X58.325 Y37.135 E2.78049
G1 X57.892 Y37.235 E0.01398
G1 X120.930 Y100.274 E2.79975
G1 X120.930 Y100.808 E0.01677
G1 X57.497 Y37.375 E2.81729
M73 P2 R221
G1 X57.136 Y37.547 E0.01258
G1 X120.930 Y101.342 E2.83334
G1 X120.930 Y101.876 E0.01677
G1 X56.803 Y37.749 E2.84811
G1 X56.498 Y37.978 E0.01198
G1 X120.930 Y102.410 E2.86166
M73 Q2 S222
G1 X120.930 Y102.944 E0.01677
G1 X56.219 Y38.233 E2.87406
G1 X55.965 Y38.514 E0.01188
G1 X120.930 Y103.478 E2.88532
G1 X120.930 Y104.013 E0.01677
G1 X55.738 Y38.820 E2.89542
G1 X55.537 Y39.154 E0.01223
G1 X120.930 Y104.547 E2.90432
G1 X120.930 Y105.081 E0.01677
G1 X55.367 Y39.517 E2.91190
G1 X55.229 Y39.914 E0.01318
G1 X120.930 Y105.615 E2.91800
G1 X120.930 Y106.149 E0.01677
G1 X55.131 Y40.350 E2.92237
G1 X55.093 Y40.589 E0.00762
G1 X55.080 Y40.833 E0.00767
G1 X120.930 Y106.683 E2.92463
G1 X120.930 Y107.217 E0.01677
G1 X55.070 Y41.357 E2.92508
G1 X55.070 Y41.891 E0.01677
G1 X120.930 Y107.751 E2.92508
M73 P3 R220
M73 Q3 S222
G1 X120.930 Y108.286 E0.01677
G1 X55.070 Y42.425 E2.92508
G1 X55.070 Y42.960 E0.01677
G1 X120.930 Y108.820 E2.92508
G1 X120.930 Y109.354 E0.01677
G1 X55.070 Y43.494 E2.92508
M73 Q3 S221
G1 X55.070 Y44.028 E0.01677
G1 X120.930 Y109.888 E2.92508
G1 X120.930 Y110.422 E0.01677
G1 X55.070 Y44.562 E2.92508
G1 X55.070 Y45.096 E0.01677
G1 X120.930 Y110.956 E2.92508
G1 X120.930 Y111.490 E0.01677
G1 X55.070 Y45.630 E2.92508
G1 X55.070 Y46.164 E0.01677
G1 X120.930 Y112.025 E2.92508
G1 X120.930 Y112.559 E0.01677
G1 X55.070 Y46.698 E2.92508
G1 X55.070 Y47.233 E0.01677
G1 X120.930 Y113.093 E2.92508
G1 X120.930 Y113.627 E0.01677
G1 X55.070 Y47.767 E2.92508
G1 X55.070 Y48.301 E0.01677
G1 X120.930 Y114.161 E2.92508
G1 X120.930 Y114.695 E0.01677
G1 X55.070 Y48.835 E2.92508
M73 P3 R219
G1 X55.070 Y49.369 E0.01677
G1 X120.930 Y115.229 E2.92508
G1 X120.930 Y115.763 E0.01677
G1 X55.070 Y49.903 E2.92508
G1 X55.070 Y50.437 E0.01677
G1 X120.930 Y116.298 E2.92508
M73 Q3 S220
G1 X120.930 Y116.832 E0.01677
